assets/Woman office worker/Dark/Flat/woman_office_worker_flat_dark.svg

<svg width="32" height="32" viewBox="0 0 32 32" fill="none" xmlns="http://www.w3.org/2000/svg">
<path d="M23.72 12.48C23.94 12.02 24.06 11.51 24.06 10.97C24.06 10.26 23.85 9.6 23.48 9.05C23.11 8.5 22.92 7.85 22.92 7.18V7.17C22.92 5.25 21.36 3.69 19.44 3.69C19.25 3.69 19.07 3.6 18.96 3.45C18.34 2.57 17.31 2 16.14 2C14.97 2 13.94 2.57 13.31 3.45C13.2 3.61 13.03 3.7 12.84 3.7C10.92 3.7 9.35997 5.26 9.35997 7.18V7.19C9.35997 7.86 9.16997 8.5 8.79997 9.06C8.43997 9.6 8.21997 10.26 8.21997 10.97C8.21997 11.51 8.33997 12.02 8.55997 12.48C8.62997 12.63 8.62997 12.81 8.55997 12.96C8.33997 13.41 8.21997 13.91 8.21997 14.45C8.21997 16.32 9.73997 17.84 11.61 17.84H20.66C22.53 17.84 24.05 16.32 24.05 14.45C24.05 13.92 23.93 13.41 23.71 12.96C23.65 12.81 23.65 12.63 23.72 12.48Z" fill="black"/>
<path d="M15.9961 15.9961L11.9152 16.282C7.86076 17.9021 5 21.8639 5 26.5001V30.0001H27V26.5001C27 21.886 24.1514 17.9306 20.1188 16.2987L15.9961 15.9961Z" fill="#433B6B"/>
<path d="M18.71 16.1201H13.29L13.3 30H18.71V16.1201Z" fill="#D3D3D3"/>
<path d="M18.8744 15.8804L18.71 16.0402V29.9902L21.46 22.1302C21.58 21.7702 21.49 21.3802 21.22 21.1202L19.86 19.7902C19.69 19.6202 19.81 19.3402 20.05 19.3402H21.1C21.31 19.3402 21.45 19.1202 21.36 18.9302L20.13 16.3102C20.1287 16.3073 20.1274 16.3045 20.1261 16.3018C19.7203 16.1372 19.3025 15.9962 18.8744 15.8804Z" fill="#8D65C5"/>
<path d="M11.9127 16.2831C11.9118 16.2854 11.9109 16.2878 11.91 16.2901L10.64 18.9801C10.55 19.1701 10.7 19.3901 10.91 19.3901H11.96C12.2 19.3901 12.31 19.6801 12.15 19.8401L10.79 21.1701C10.53 21.4301 10.43 21.8201 10.56 22.1701L13.29 29.9901H13.3V16.0901L12.875 15.9495C12.5476 16.0462 12.2266 16.1577 11.9127 16.2831Z" fill="#8D65C5"/>
<path d="M15.9901 18.6802L14.3101 19.0002L15.2901 21.1102L13.9301 30.0001H18.0401L16.6901 21.1102L17.6601 19.0002L15.9901 18.6802Z" fill="#321B41"/>
<path d="M16 15.3101H13.29V20.0501C13.29 20.3601 13.65 20.5401 13.9 20.3401L16 18.6701L18.1 20.3401C18.35 20.5401 18.71 20.3601 18.71 20.0501V15.3101H16V15.3101Z" fill="#E6E6E6"/>
<path d="M13.0948 10.6901C13.0948 11.5903 12.3651 12.3201 11.4648 12.3201C10.5646 12.3201 9.83484 11.5903 9.83484 10.6901C9.83484 9.78983 10.5646 9.06006 11.4648 9.06006C12.3651 9.06006 13.0948 9.78983 13.0948 10.6901Z" fill="#4E3233"/>
<path d="M22.4352 10.6901C22.4352 11.5903 21.7054 12.3201 20.8052 12.3201C19.9049 12.3201 19.1752 11.5903 19.1752 10.6901C19.1752 9.78983 19.9049 9.06006 20.8052 9.06006C21.7054 9.06006 22.4352 9.78983 22.4352 10.6901Z" fill="#4E3233"/>
<path d="M16 18.5C14.8942 18.5 14 17.5356 14 16.343V13.657C14 12.4644 14.8942 11.5 16 11.5C17.1058 11.5 18 12.4644 18 13.657V16.343C17.9904 17.5356 17.0962 18.5 16 18.5Z" fill="#452829"/>
<path d="M20.26 7.65994H16.91C15.58 7.65994 14.34 6.99994 13.59 5.90994C13.46 5.72994 13.19 5.75994 13.11 5.96994L13.03 6.16994C12.79 6.74994 12.34 7.19994 11.78 7.44994C11.75 7.45994 11.71 7.47994 11.67 7.48994C11.42 7.61994 10.85 7.99994 10.83 8.99994L10.97 12.3399C11.09 15.2999 13.37 17.2799 16.14 17.2799C18.91 17.2799 21.19 15.2999 21.31 12.3399L21.44 9.15994C21.44 7.75994 20.46 7.65994 20.26 7.65994Z" fill="#573739"/>
<path d="M13.38 9.6001C13.98 9.6001 14.46 10.0101 14.76 10.4701C14.4992 10.5498 14.2451 10.6229 13.9922 10.6956C13.5469 10.8237 13.1056 10.9506 12.64 11.1101L12.14 10.6601C11.94 10.4701 11.95 10.1301 12.18 9.9701C12.51 9.7301 12.96 9.6001 13.38 9.6001Z" fill="black"/>
<path d="M18.89 9.6001C18.3 9.6001 17.81 10.0101 17.51 10.4701C17.7532 10.5434 17.9898 10.6111 18.2238 10.6782C18.692 10.8123 19.1499 10.9434 19.63 11.1101L20.13 10.6601C20.33 10.4701 20.32 10.1301 20.09 9.9701C19.76 9.7301 19.31 9.6001 18.89 9.6001Z" fill="black"/>
<path d="M12.1399 10.82C12.2999 10.18 12.8799 9.70996 13.5699 9.70996C14.2799 9.70996 14.8799 10.22 15.0099 10.9C15.0399 11.04 14.9199 11.18 14.7699 11.18H12.4199C12.2399 11.18 12.0999 11 12.1399 10.82Z" fill="white"/>
<path d="M20.14 10.82C19.98 10.18 19.4 9.70996 18.71 9.70996C17.99 9.70996 17.4 10.22 17.27 10.9C17.24 11.04 17.36 11.18 17.51 11.18H19.86C20.04 11.18 20.19 11 20.14 10.82Z" fill="white"/>
<path d="M12.85 10.93C12.85 10.41 13.27 9.98999 13.79 9.98999C14.31 9.98999 14.73 10.41 14.73 10.93C14.73 11.01 14.71 11.1 14.69 11.18H12.88C12.86 11.1 12.85 11.02 12.85 10.93Z" fill="#7D4533"/>
<path d="M19.43 10.93C19.43 10.41 19.01 9.98999 18.49 9.98999C17.97 9.98999 17.55 10.41 17.56 10.93C17.56 11.02 17.57 11.1 17.59 11.18H19.4C19.42 11.1 19.43 11.02 19.43 10.93Z" fill="#7D4533"/>
<path d="M13.78 10.3901C14.08 10.3901 14.32 10.6301 14.32 10.9301C14.32 11.0201 14.3 11.1001 14.25 11.1801H13.3C13.26 11.1001 13.24 11.0201 13.24 10.9301C13.24 10.6301 13.48 10.3901 13.78 10.3901Z" fill="black"/>
<path d="M18.5 10.3901C18.2 10.3901 17.96 10.6301 17.96 10.9301C17.96 11.0201 17.98 11.1001 18.03 11.1801H18.98C19.02 11.1001 19.04 11.0201 19.04 10.9301C19.04 10.6301 18.8 10.3901 18.5 10.3901Z" fill="black"/>
<path d="M13.6299 10.5601C13.6299 10.654 13.5538 10.7301 13.4599 10.7301C13.366 10.7301 13.2899 10.654 13.2899 10.5601C13.2899 10.4662 13.366 10.3901 13.4599 10.3901C13.5538 10.3901 13.6299 10.4662 13.6299 10.5601Z" fill="white"/>
<path d="M18.34 10.5601C18.34 10.654 18.2639 10.7301 18.17 10.7301C18.0761 10.7301 18 10.654 18 10.5601C18 10.4662 18.0761 10.3901 18.17 10.3901C18.2639 10.3901 18.34 10.4662 18.34 10.5601Z" fill="white"/>
<path d="M16.14 14.1C15.59 14.1 15.08 13.97 14.64 13.74C14.49 13.66 14.34 13.83 14.43 13.97C14.79 14.53 15.42 14.9 16.14 14.9C16.86 14.9 17.49 14.53 17.85 13.97C17.94 13.83 17.78 13.66 17.64 13.74C17.2 13.97 16.69 14.1 16.14 14.1Z" fill="#290118"/>
<path d="M15.75 10.69L15.22 12.42C15.11 12.77 15.38 13.13 15.75 13.13H16.54C16.91 13.13 17.18 12.77 17.07 12.42L16.54 10.69C16.41 10.31 15.87 10.31 15.75 10.69Z" fill="#3D2123"/>
<path d="M19.73 9.02003C19.77 9.05003 19.82 9.06003 19.87 9.06003C19.97 9.06003 20.06 9.01003 20.11 8.91003C20.19 8.77003 20.15 8.60003 20.01 8.52003C19.98 8.50003 19.06 7.99003 18.01 8.18003C17.85 8.21003 17.75 8.36003 17.78 8.51003C17.81 8.67003 17.96 8.77003 18.11 8.74003C18.8875 8.60281 19.5898 8.95096 19.7115 9.01129C19.7228 9.01691 19.73 9.02003 19.73 9.02003Z" fill="black"/>
<path d="M12.16 8.91999C12.22 9.00999 12.31 9.05999 12.41 9.05999C12.46 9.05999 12.51 9.04999 12.55 9.02999C12.56 9.01999 13.32 8.59999 14.17 8.74999C14.32 8.77999 14.47 8.66999 14.5 8.51999C14.53 8.36999 14.43 8.21999 14.26 8.18999C13.2533 7.99825 12.3754 8.46827 12.2693 8.52504C12.2648 8.52748 12.26 8.52999 12.26 8.52999C12.13 8.60999 12.08 8.77999 12.16 8.91999Z" fill="black"/>
</svg>

<svg xmlns="http://www.w3.org/2000/svg" width="32" height="32" fill="none"><path fill="#000" d="M23.72 12.48c.22-.46.34-.97.34-1.51 0-.71-.21-1.37-.58-1.92a3.34 3.34 0 0 1-.56-1.87v-.01c0-1.92-1.56-3.48-3.48-3.48-.19 0-.37-.09-.48-.24A3.434 3.434 0 0 0 16.14 2c-1.17 0-2.2.57-2.83 1.45-.11.16-.28.25-.47.25-1.92 0-3.48 1.56-3.48 3.48v.01c0 .67-.19 1.31-.56 1.87-.36.54-.58 1.2-.58 1.91 0 .54.12 1.05.34 1.51.07.15.07.33 0 .48-.22.45-.34.95-.34 1.49 0 1.87 1.52 3.39 3.39 3.39h9.05c1.87 0 3.39-1.52 3.39-3.39 0-.53-.12-1.04-.34-1.49a.616.616 0 0 1 .01-.48Z"/><path fill="#433B6B" d="m15.996 15.996-4.08.286A10.997 10.997 0 0 0 5 26.5V30h22v-3.5c0-4.614-2.849-8.57-6.881-10.201l-4.123-.303Z"/><path fill="#D3D3D3" d="M18.71 16.12h-5.42L13.3 30h5.41V16.12Z"/><path fill="#8D65C5" d="m18.874 15.88-.164.16v13.95l2.75-7.86c.12-.36.03-.75-.24-1.01l-1.36-1.33a.262.262 0 0 1 .19-.45h1.05c.21 0 .35-.22.26-.41l-1.23-2.62a.34.34 0 0 0-.004-.008 10.906 10.906 0 0 0-1.252-.422ZM11.913 16.283l-.003.007-1.27 2.69c-.09.19.06.41.27.41h1.05c.24 0 .35.29.19.45l-1.36 1.33c-.26.26-.36.65-.23 1l2.73 7.82h.01v-13.9l-.425-.14a10.97 10.97 0 0 0-.962.333Z"/><path fill="#321B41" d="m15.99 18.68-1.68.32.98 2.11L13.93 30h4.11l-1.35-8.89.97-2.11-1.67-.32Z"/><path fill="#E6E6E6" d="M16 15.31h-2.71v4.74c0 .31.36.49.61.29l2.1-1.67 2.1 1.67c.25.2.61.02.61-.29v-4.74H16Z"/><path fill="#4E3233" d="M13.095 10.69a1.63 1.63 0 1 1-3.26 0 1.63 1.63 0 0 1 3.26 0ZM22.435 10.69a1.63 1.63 0 1 1-3.26 0 1.63 1.63 0 0 1 3.26 0Z"/><path fill="#452829" d="M16 18.5c-1.106 0-2-.964-2-2.157v-2.686c0-1.193.894-2.157 2-2.157 1.106 0 2 .964 2 2.157v2.686c-.01 1.193-.904 2.157-2 2.157Z"/><path fill="#573739" d="M20.26 7.66h-3.35c-1.33 0-2.57-.66-3.32-1.75a.272.272 0 0 0-.48.06l-.08.2c-.24.58-.69 1.03-1.25 1.28-.03.01-.07.03-.11.04-.25.13-.82.51-.84 1.51l.14 3.34c.12 2.96 2.4 4.94 5.17 4.94s5.05-1.98 5.17-4.94l.13-3.18c0-1.4-.98-1.5-1.18-1.5Z"/><path fill="#000" d="M13.38 9.6c.6 0 1.08.41 1.38.87-.26.08-.515.153-.768.226-.445.128-.886.255-1.352.414l-.5-.45c-.2-.19-.19-.53.04-.69.33-.24.78-.37 1.2-.37ZM18.89 9.6c-.59 0-1.08.41-1.38.87.243.073.48.141.714.208.468.134.926.265 1.406.432l.5-.45c.2-.19.19-.53-.04-.69-.33-.24-.78-.37-1.2-.37Z"/><path fill="#fff" d="M12.14 10.82a1.47 1.47 0 0 1 2.87.08c.03.14-.09.28-.24.28h-2.35c-.18 0-.32-.18-.28-.36ZM20.14 10.82a1.47 1.47 0 0 0-1.43-1.11c-.72 0-1.31.51-1.44 1.19-.03.14.09.28.24.28h2.35c.18 0 .33-.18.28-.36Z"/><path fill="#7D4533" d="M12.85 10.93a.939.939 0 1 1 1.88 0c0 .08-.02.17-.04.25h-1.81c-.02-.08-.03-.16-.03-.25ZM19.43 10.93c0-.52-.42-.94-.94-.94s-.94.42-.93.94c0 .09.01.17.03.25h1.81c.02-.08.03-.16.03-.25Z"/><path fill="#000" d="M13.78 10.39c.3 0 .54.24.54.54 0 .09-.02.17-.07.25h-.95a.542.542 0 0 1 .48-.79ZM18.5 10.39c-.3 0-.54.24-.54.54 0 .09.02.17.07.25h.95a.542.542 0 0 0-.48-.79Z"/><path fill="#fff" d="M13.63 10.56a.17.17 0 1 1-.34 0 .17.17 0 0 1 .34 0ZM18.34 10.56a.17.17 0 1 1-.34 0 .17.17 0 0 1 .34 0Z"/><path fill="#290118" d="M16.14 14.1c-.55 0-1.06-.13-1.5-.36-.15-.08-.3.09-.21.23.36.56.99.93 1.71.93s1.35-.37 1.71-.93c.09-.14-.07-.31-.21-.23-.44.23-.95.36-1.5.36Z"/><path fill="#3D2123" d="m15.75 10.69-.53 1.73c-.11.35.16.71.53.71h.79c.37 0 .64-.36.53-.71l-.53-1.73c-.13-.38-.67-.38-.79 0Z"/><path fill="#000" d="M19.73 9.02c.04.03.09.04.14.04.1 0 .19-.05.24-.15a.28.28 0 0 0-.1-.39c-.03-.02-.95-.53-2-.34-.16.03-.26.18-.23.33.03.16.18.26.33.23.777-.137 1.48.211 1.602.271l.018.009ZM12.16 8.92c.06.09.15.14.25.14.05 0 .1-.01.14-.03.01-.01.77-.43 1.62-.28.15.03.3-.08.33-.23.03-.15-.07-.3-.24-.33-1.007-.192-1.885.278-1.99.335a.288.288 0 0 0-.11.395Z"/></svg>
